swiss/communes/5208.svg

<?xml version="1.0" encoding="UTF-8" standalone="no"?>
<svg
   xmlns:dc="http://purl.org/dc/elements/1.1/"
   xmlns:cc="http://creativecommons.org/ns#"
   xmlns:rdf="http://www.w3.org/1999/02/22-rdf-syntax-ns#"
   xmlns:svg="http://www.w3.org/2000/svg"
   xmlns="http://www.w3.org/2000/svg"
   xmlns:xlink="http://www.w3.org/1999/xlink"
   xmlns:sodipodi="http://sodipodi.sourceforge.net/DTD/sodipodi-0.dtd"
   xmlns:inkscape="http://www.inkscape.org/namespaces/inkscape"
   height="763"
   width="603"
   version="1.0"
   id="svg20"
   sodipodi:version="0.32"
   inkscape:version="0.46"
   sodipodi:docname="Origlio-coat_of_arms.svg"
   sodipodi:docbase="C:\Documents and Settings\Steve\Bureau\Blason Villages Suisse pour Wikipédia (par Delta-9)"
   inkscape:output_extension="org.inkscape.output.svg.inkscape">
  <metadata
     id="metadata31">
    <rdf:RDF>
      <cc:Work
         rdf:about="">
        <dc:format>image/svg+xml</dc:format>
        <dc:type
           rdf:resource="http://purl.org/dc/dcmitype/StillImage" />
        <dc:date>07-AUG-2006</dc:date>
        <dc:creator>
          <cc:Agent>
            <dc:title>Jérôme BLUM (wagner51)</dc:title>
          </cc:Agent>
        </dc:creator>
        <cc:license
           rdf:resource="http://creativecommons.org/licenses/GPL/2.0/" />
        <dc:coverage />
        <dc:description>Gabarit pour le Projet:Blasons de WIkipédia</dc:description>
        <dc:subject>
          <rdf:Bag>
            <rdf:li>blason suisse modèle gabarit projet blasons</rdf:li>
          </rdf:Bag>
        </dc:subject>
        <dc:language>fr</dc:language>
        <dc:title>Gabrit d'un blason suisse</dc:title>
      </cc:Work>
      <cc:License
         rdf:about="http://creativecommons.org/licenses/GPL/2.0/">
        <cc:permits
           rdf:resource="http://web.resource.org/cc/Reproduction" />
        <cc:permits
           rdf:resource="http://web.resource.org/cc/Distribution" />
        <cc:requires
           rdf:resource="http://web.resource.org/cc/Notice" />
        <cc:permits
           rdf:resource="http://web.resource.org/cc/DerivativeWorks" />
        <cc:requires
           rdf:resource="http://web.resource.org/cc/ShareAlike" />
        <cc:requires
           rdf:resource="http://web.resource.org/cc/SourceCode" />
      </cc:License>
    </rdf:RDF>
  </metadata>
  <defs
     id="defs29"><inkscape:perspective
   sodipodi:type="inkscape:persp3d"
   inkscape:vp_x="0 : 381.5 : 1"
   inkscape:vp_y="0 : 1000 : 0"
   inkscape:vp_z="603 : 381.5 : 1"
   inkscape:persp3d-origin="301.5 : 254.33333 : 1"
   id="perspective28" />
<linearGradient
   id="linearGradient2893">
  <stop
     style="stop-color:#ffffff;stop-opacity:0.3137255;"
     offset="0"
     id="stop2895" />
  <stop
     id="stop2897"
     offset="0.19"
     style="stop-color:#ffffff;stop-opacity:0.25098041;" />
  <stop
     style="stop-color:#6b6b6b;stop-opacity:0.1254902;"
     offset="0.60000002"
     id="stop2901" />
  <stop
     style="stop-color:#000000;stop-opacity:0.1254902;"
     offset="1"
     id="stop2899" />
</linearGradient>
<linearGradient
   id="linearGradient2955">
  <stop
     style="stop-color:white;stop-opacity:0;"
     offset="0"
     id="stop2965" />
  <stop
     style="stop-color:black;stop-opacity:0.64583331;"
     offset="1"
     id="stop2959" />
</linearGradient>
<radialGradient
   inkscape:collect="always"
   xlink:href="#linearGradient2893"
   id="radialGradient3236"
   gradientUnits="userSpaceOnUse"
   gradientTransform="matrix(1.215027,1.531577e-24,1.464684e-23,1.266667,-839.1924,-490.4894)"
   cx="858.04236"
   cy="579.93323"
   fx="858.04236"
   fy="579.93323"
   r="300" />
<inkscape:perspective
   id="perspective2511"
   inkscape:persp3d-origin="306 : 264 : 1"
   inkscape:vp_z="612 : 396 : 1"
   inkscape:vp_y="0 : 1000 : 0"
   inkscape:vp_x="0 : 396 : 1"
   sodipodi:type="inkscape:persp3d" />

	
	

	
	

		
		
	
		
			
		
			
		
			
		
			
	
			
			
			
			
			
		</defs>
  <sodipodi:namedview
     inkscape:window-height="691"
     inkscape:window-width="939"
     inkscape:pageshadow="2"
     inkscape:pageopacity="0.0"
     guidetolerance="10.0"
     gridtolerance="10.0"
     objecttolerance="10.0"
     borderopacity="1.0"
     bordercolor="#666666"
     pagecolor="#ffffff"
     id="base"
     inkscape:zoom="0.43708207"
     inkscape:cx="261.02984"
     inkscape:cy="440.69974"
     inkscape:window-x="20"
     inkscape:window-y="42"
     inkscape:current-layer="layer2"
     showgrid="false"
     showguides="true"
     inkscape:guide-bbox="true">
    <sodipodi:guide
       orientation="horizontal"
       position="761.5"
       id="guide1885" />
    <sodipodi:guide
       orientation="vertical"
       position="1.5"
       id="guide1887" />
    <sodipodi:guide
       orientation="horizontal"
       position="1.5"
       id="guide1889" />
    <sodipodi:guide
       orientation="vertical"
       position="601.5"
       id="guide1891" />
    <sodipodi:guide
       orientation="vertical"
       position="301.50081"
       id="guide1893" />
  </sodipodi:namedview>
  <desc
     id="desc22">Coat of Arms of Canton of Freiburg (Fribourg)</desc>
  <g
     inkscape:groupmode="layer"
     id="layer1"
     inkscape:label="Fond écu"
     style="opacity:1"
     sodipodi:insensitive="true">
    <path
       id="path1899"
       d="M 1.5,1.49998 L 1.5,460.3679 C 1.5,626.6785 135.81456,761.5 301.49999,761.5 C 467.18543,761.5 601.5,626.6785 601.5,460.3679 L 601.5,1.49998 L 1.5,1.49998 z"
       style="fill:#e20909;fill-opacity:1" />
    <path
       id="path2480"
       d="M 1.5000041,367 L 1.5000041,460.368 C 1.5000041,626.679 135.814,761.5 301.5,761.5 C 467.186,761.5 601.5,626.679 601.5,460.368 L 601.5,367 L 1.5000041,367 z"
       style="opacity:1;fill:#ffffff" />
  </g>
  <g
     inkscape:groupmode="layer"
     id="layer2"
     inkscape:label="Meubles"
     style="opacity:1"
     sodipodi:insensitive="true">
    <polygon
       style="fill:#ffffff;stroke:#000000;stroke-width:2.79999995;stroke-linecap:round;stroke-linejoin:round"
       id="polygon2472_2_"
       points="388,367 357,145 246,145 215,367 388,367 "
       transform="translate(4.1e-6,0)" />
    <polygon
       style="fill:#ffffff;stroke:#000000;stroke-width:2.79999995;stroke-linecap:round;stroke-linejoin:round"
       id="polygon2474"
       points="345.599,98.5 345.6,124.5 316.2,124.5 316.2,98.5 286.8,98.5 286.8,124.5 257.4,124.5 257.401,98.5 228,98.5 228,145 375,145 375,98.5 345.599,98.5 "
       transform="translate(4.1e-6,0)" />
    <rect
       style="fill:#e20909;stroke:#000000;stroke-width:2.79999995;stroke-linecap:round;stroke-linejoin:round"
       id="rect2476"
       x="293.67603"
       y="183.5"
       width="15.648"
       height="43.146999" />
    <rect
       style="fill:#e20909;stroke:#000000;stroke-width:2.79999995;stroke-linecap:round;stroke-linejoin:round"
       id="rect2476_6_"
       x="293.67603"
       y="271.353"
       width="15.648"
       height="43.146999" />
    <path
       style="fill:#2b5df2"
       d="M 399.199,618.034 C 355.776,618.034 344.922,594.7 301.5,594.7 C 258.078,594.7 247.223,618.034 203.801,618.034 C 160.379,618.034 149.524,594.7 106.102,594.7 C 76.695004,594.7 62.217004,605.397 42.452004,612.305 C 55.806004,635.195 72.080004,656.156 90.768004,674.673 C 95.432,673.994 100.491,673.599 106.101,673.599 C 149.523,673.599 160.378,696.933 203.8,696.933 C 247.222,696.933 258.077,673.599 301.499,673.599 C 344.921,673.599 355.775,696.933 399.198,696.933 C 442.62,696.933 453.474,673.599 496.896,673.599 C 502.507,673.599 507.566,673.995 512.23,674.673 C 530.918,656.155 547.193,635.195 560.546,612.305 C 540.78,605.397 526.303,594.7 496.896,594.7 C 453.476,594.7 442.621,618.034 399.199,618.034 z M 594.596,459.234 C 551.174,459.234 540.32,435.9 496.898,435.9 C 453.476,435.9 442.622,459.234 399.2,459.234 C 355.777,459.234 344.923,435.9 301.501,435.9 C 258.079,435.9 247.224,459.234 203.802,459.234 C 160.38,459.234 149.525,435.9 106.103,435.9 C 62.681004,435.9 51.826004,459.234 8.404004,459.234 C 6.002004,459.234 3.715004,459.152 1.5010041,459.017 L 1.5010041,460.368 C 1.5010041,487.242 5.027004,513.286 11.607004,538.08 C 52.378004,536.964 63.774004,514.8 106.103,514.8 C 149.525,514.8 160.38,538.134 203.802,538.134 C 247.224,538.134 258.079,514.8 301.501,514.8 C 344.923,514.8 355.777,538.134 399.2,538.134 C 442.622,538.134 453.476,514.8 496.898,514.8 C 539.227,514.8 550.622,536.964 591.394,538.08 C 597.974,513.286 601.5,487.242 601.5,460.368 L 601.5,459.017 C 599.286,459.152 596.998,459.234 594.596,459.234 z"
       id="path2492" />
    <path
       id="path2496"
       d="M 90.769004,674.674 C 95.433,673.995 100.492,673.6 106.102,673.6 C 149.524,673.6 160.379,696.934 203.801,696.934 C 247.223,696.934 258.078,673.6 301.5,673.6 C 344.922,673.6 355.776,696.934 399.199,696.934 C 442.621,696.934 453.475,673.6 496.897,673.6 C 502.508,673.6 507.567,673.996 512.231,674.674"
       style="fill:none;stroke:#000000;stroke-width:3" />
    <path
       id="path2498"
       d="M 560.548,612.306 C 540.782,605.398 526.305,594.701 496.898,594.701 C 453.476,594.701 442.622,618.035 399.2,618.035 C 355.777,618.035 344.923,594.701 301.501,594.701 C 258.079,594.701 247.224,618.035 203.802,618.035 C 160.38,618.035 149.525,594.701 106.103,594.701 C 76.696004,594.701 62.218004,605.398 42.453004,612.306"
       style="fill:none;stroke:#000000;stroke-width:3" />
    <path
       id="path2500"
       d="M 11.606004,538.08 C 52.377004,536.964 63.773004,514.8 106.102,514.8 C 149.524,514.8 160.379,538.134 203.801,538.134 C 247.223,538.134 258.078,514.8 301.5,514.8 C 344.922,514.8 355.776,538.134 399.199,538.134 C 442.621,538.134 453.475,514.8 496.897,514.8 C 539.226,514.8 550.621,536.964 591.393,538.08"
       style="fill:none;stroke:#000000;stroke-width:3" />
    <path
       id="path2502"
       d="M 601.5,460.368 L 601.5,459.017 C 599.286,459.152 596.998,459.234 594.596,459.234 C 551.174,459.234 540.32,435.9 496.898,435.9 C 453.476,435.9 442.622,459.234 399.2,459.234 C 355.777,459.234 344.923,435.9 301.501,435.9 C 258.079,435.9 247.224,459.234 203.802,459.234 C 160.38,459.234 149.525,435.9 106.103,435.9 C 62.681004,435.9 51.826004,459.234 8.404004,459.234 C 6.002004,459.234 3.715004,459.152 1.5010041,459.017 L 1.5010041,460.368"
       style="fill:none;stroke:#000000;stroke-width:3" />
    <line
       id="line2504"
       y2="367"
       x2="601.5"
       y1="367"
       x1="1.5000048"
       style="fill:none;stroke:#000000;stroke-width:3" />
  </g>
  <g
     inkscape:groupmode="layer"
     id="layer3"
     inkscape:label="Reflet final"
     style="display:inline"
     sodipodi:insensitive="true">
    <path
       style="fill:url(#radialGradient3236);fill-opacity:1"
       d="M 1.5,1.5 L 1.5,460.3679 C 1.5,626.67854 135.81454,761.5 301.49993,761.5 C 467.1854,761.5 601.5,626.67854 601.5,460.3679 L 601.5,1.5 L 1.5,1.5 z "
       id="path2346" />
  </g>
  <g
     inkscape:groupmode="layer"
     id="layer4"
     inkscape:label="Contour final"
     style="display:inline"
     sodipodi:insensitive="true">
    <path
       style="fill:none;fill-opacity:1;stroke:#000000;stroke-width:3;stroke-miterlimit:4;stroke-dasharray:none;stroke-opacity:1"
       d="M 1.5,1.5 L 1.5,460.36794 C 1.5,626.67854 135.81454,761.5 301.49993,761.5 C 467.1854,761.5 601.5,626.67854 601.5,460.36794 L 601.5,1.5 L 1.5,1.5 z "
       id="path3239" />
  </g>
</svg>

<svg xmlns="http://www.w3.org/2000/svg" xmlns:xlink="http://www.w3.org/1999/xlink" height="763" width="603" version="1.0"><defs><radialGradient xlink:href="#a" id="b" gradientUnits="userSpaceOnUse" gradientTransform="matrix(1.21503 0 0 1.26667 -839.192 -490.49)" cx="858.042" cy="579.933" fx="858.042" fy="579.933" r="300"/><linearGradient id="a"><stop style="stop-color:#fff;stop-opacity:.3137255" offset="0"/><stop offset=".19" style="stop-color:#fff;stop-opacity:.25098041"/><stop style="stop-color:#6b6b6b;stop-opacity:.1254902" offset=".6"/><stop style="stop-color:#000;stop-opacity:.1254902" offset="1"/></linearGradient></defs><g style="opacity:1"><path d="M1.5 1.5v458.868c0 166.31 134.315 301.132 300 301.132s300-134.822 300-301.132V1.5H1.5z" style="fill:#e20909;fill-opacity:1"/><path d="M1.5 367v93.368c0 166.311 134.314 301.132 300 301.132s300-134.821 300-301.132V367H1.5z" style="opacity:1;fill:#fff"/></g><g style="opacity:1"><path style="fill:#fff;stroke:#000;stroke-width:2.79999995;stroke-linecap:round;stroke-linejoin:round" d="m388 367-31-222H246l-31 222h173zM345.599 98.5l.001 26h-29.4v-26h-29.4v26h-29.4l.001-26H228V145h147V98.5h-29.401z"/><path style="fill:#e20909;stroke:#000;stroke-width:2.79999995;stroke-linecap:round;stroke-linejoin:round" d="M293.676 183.5h15.648v43.147h-15.648zM293.676 271.353h15.648V314.5h-15.648z"/><path style="fill:#2b5df2" d="M399.199 618.034c-43.423 0-54.277-23.334-97.699-23.334s-54.277 23.334-97.699 23.334-54.277-23.334-97.699-23.334c-29.407 0-43.885 10.697-63.65 17.605a302.204 302.204 0 0 0 48.316 62.368c4.664-.679 9.723-1.074 15.333-1.074 43.422 0 54.277 23.334 97.699 23.334s54.277-23.334 97.699-23.334 54.276 23.334 97.699 23.334c43.422 0 54.276-23.334 97.698-23.334 5.611 0 10.67.396 15.334 1.074a302.196 302.196 0 0 0 48.316-62.368c-19.766-6.908-34.243-17.605-63.65-17.605-43.42 0-54.275 23.334-97.697 23.334zm195.397-158.8c-43.422 0-54.276-23.334-97.698-23.334-43.422 0-54.276 23.334-97.698 23.334-43.423 0-54.277-23.334-97.699-23.334s-54.277 23.334-97.699 23.334-54.277-23.334-97.699-23.334-54.277 23.334-97.699 23.334c-2.402 0-4.689-.082-6.903-.217v1.351c0 26.874 3.526 52.918 10.106 77.712 40.771-1.116 52.167-23.28 94.496-23.28 43.422 0 54.277 23.334 97.699 23.334s54.277-23.334 97.699-23.334 54.276 23.334 97.699 23.334c43.422 0 54.276-23.334 97.698-23.334 42.329 0 53.724 22.164 94.496 23.28 6.58-24.794 10.106-50.838 10.106-77.712v-1.351c-2.214.135-4.502.217-6.904.217z"/><path d="M90.769 674.674c4.664-.679 9.723-1.074 15.333-1.074 43.422 0 54.277 23.334 97.699 23.334S258.078 673.6 301.5 673.6s54.276 23.334 97.699 23.334c43.422 0 54.276-23.334 97.698-23.334 5.611 0 10.67.396 15.334 1.074M560.548 612.306c-19.766-6.908-34.243-17.605-63.65-17.605-43.422 0-54.276 23.334-97.698 23.334-43.423 0-54.277-23.334-97.699-23.334s-54.277 23.334-97.699 23.334-54.277-23.334-97.699-23.334c-29.407 0-43.885 10.697-63.65 17.605M11.606 538.08c40.771-1.116 52.167-23.28 94.496-23.28 43.422 0 54.277 23.334 97.699 23.334S258.078 514.8 301.5 514.8s54.276 23.334 97.699 23.334c43.422 0 54.276-23.334 97.698-23.334 42.329 0 53.724 22.164 94.496 23.28M601.5 460.368v-1.351c-2.214.135-4.502.217-6.904.217-43.422 0-54.276-23.334-97.698-23.334-43.422 0-54.276 23.334-97.698 23.334-43.423 0-54.277-23.334-97.699-23.334s-54.277 23.334-97.699 23.334-54.277-23.334-97.699-23.334-54.277 23.334-97.699 23.334c-2.402 0-4.689-.082-6.903-.217v1.351M1.5 367h600" style="fill:none;stroke:#000;stroke-width:3"/></g><g style="display:inline"><path style="fill:url(#b);fill-opacity:1" d="M1.5 1.5v458.868c0 166.31 134.315 301.132 300 301.132s300-134.821 300-301.132V1.5H1.5z"/></g><g style="display:inline"><path style="fill:none;fill-opacity:1;stroke:#000;stroke-width:3;stroke-miterlimit:4;stroke-dasharray:none;stroke-opacity:1" d="M1.5 1.5v458.868c0 166.31 134.315 301.132 300 301.132s300-134.821 300-301.132V1.5H1.5z"/></g></svg>
